fs/text_bullet_list_rotate_90_20_regular.svg

<svg viewBox="0 0 20 20" fill="none" xmlns="http://www.w3.org/2000/svg" height="1em" width="1em">
  <path d="M4.5 4C5.05228 4 5.5 3.55228 5.5 3C5.5 2.44772 5.05228 2 4.5 2C3.94772 2 3.5 2.44772 3.5 3C3.5 3.55228 3.94772 4 4.5 4ZM10 4C10.5523 4 11 3.55228 11 3C11 2.44772 10.5523 2 10 2C9.44772 2 9 2.44772 9 3C9 3.55228 9.44772 4 10 4ZM16.5 3C16.5 3.55228 16.0523 4 15.5 4C14.9477 4 14.5 3.55228 14.5 3C14.5 2.44772 14.9477 2 15.5 2C16.0523 2 16.5 2.44772 16.5 3ZM5 5.5C5 5.22386 4.77614 5 4.5 5C4.22386 5 4 5.22386 4 5.5V17.5C4 17.7761 4.22386 18 4.5 18C4.77614 18 5 17.7761 5 17.5V5.5ZM10 5C10.2761 5 10.5 5.22386 10.5 5.5V17.5C10.5 17.7761 10.2761 18 10 18C9.72386 18 9.5 17.7761 9.5 17.5V5.5C9.5 5.22386 9.72386 5 10 5ZM16 5.5C16 5.22386 15.7761 5 15.5 5C15.2239 5 15 5.22386 15 5.5V17.5C15 17.7761 15.2239 18 15.5 18C15.7761 18 16 17.7761 16 17.5V5.5Z" fill="#212121"/>
</svg>

<svg viewBox="0 0 20 20" fill="none" xmlns="http://www.w3.org/2000/svg" height="1em" width="1em">
  <path d="M4.5 4a1 1 0 1 0 0-2 1 1 0 0 0 0 2ZM10 4a1 1 0 1 0 0-2 1 1 0 0 0 0 2Zm6.5-1a1 1 0 1 1-2 0 1 1 0 0 1 2 0ZM5 5.5a.5.5 0 0 0-1 0v12a.5.5 0 0 0 1 0v-12Zm5-.5a.5.5 0 0 1 .5.5v12a.5.5 0 0 1-1 0v-12A.5.5 0 0 1 10 5Zm6 .5a.5.5 0 0 0-1 0v12a.5.5 0 0 0 1 0v-12Z" fill="#212121"/>
</svg>
